img/icons/mime/large/rtf.svg

<svg height="140.9" width="125.3" xmlns="http://www.w3.org/2000/svg" xmlns:xlink="http://www.w3.org/1999/xlink"><linearGradient id="a" gradientTransform="matrix(.939922 0 0 .896911 -12.081733 -3.352424)" gradientUnits="userSpaceOnUse" x1="24" x2="73" y1="16.4" y2="73.4"><stop offset="0" stop-color="#fff"/><stop offset="1" stop-color="#fff" stop-opacity="0"/></linearGradient><linearGradient id="b" gradientTransform="scale(1.0801 .92584)" gradientUnits="userSpaceOnUse" spreadMethod="reflect" x1="-54.6" x2="-66.5" y1="63.6" y2="49.7"><stop offset="0" stop-color="#900"/><stop offset="1" stop-color="#fff"/></linearGradient><linearGradient id="c" gradientTransform="matrix(.999352 0 0 1.000649 -151.1197 -.37325)" gradientUnits="userSpaceOnUse" spreadMethod="reflect" x1="52.7" x2="47.1" y1="81.2" y2="75.1"><stop offset="0" stop-color="#eed680"/><stop offset=".3" stop-color="#dfb546"/><stop offset="1" stop-color="#d1940c"/></linearGradient><rect fill="none" height="133.4" rx="22.9" stroke="#000" stroke-linejoin="round" stroke-opacity=".5" stroke-width="7.5" width="117.8" x="3.8" y="3.8"/><rect fill="#bab5ab" height="133.4" rx="22.9" stroke="#000" stroke-width="3.8" width="117.8" x="3.6" y="3.7"/><path d="m105.3 99.2h-10c-1.5 0-2.7.2-3.7.5-.4.2-.8.3-1.2.5-.3.2-.7.5-1 .8-.9.8-1.5 1.8-1.9 3l-.2.9-.1 1.1v.9h18.1v5.1h-18.1v13h-6.7v-15.6c0-1.3 0-2.5.1-3.5.1-1.1.2-2 .4-2.8.5-2.5 1.7-4.6 3.5-6.2 1.1-1.1 2.5-1.8 4.1-2.3s3.6-.7 6.1-.7h10.6zm-55.2-5.3h28v5.3h-10.7v25.8h-6.6v-25.8h-10.7zm-17.6 18.8h-7.2v12.3h-6.7v-31.1h18c3 0 5.3.7 6.9 2.2 1.7 1.6 2.6 4 2.6 7.2 0 1.2-.1 2.3-.4 3.3-.2.9-.5 1.7-1 2.5-.9 1.4-2.4 2.5-4.4 3.2h-.2l6.8 12.7h-7.9zm-7.2-13.5v8.7h7.8c1.6 0 2.7-.3 3.5-.9 1-.7 1.5-1.8 1.5-3.5 0-1.5-.5-2.6-1.4-3.2-.9-.7-2.1-1.1-3.6-1.1z" fill="#fff"/><path d="m100.3 132.6h-75.7c-11.6 0-17.3-5.7-17.3-17.4 0 0 27.6-66.5 110.4-76.6v76.6c0 11.7-5.7 17.4-17.4 17.4z" fill="#fff" fill-opacity=".3"/><path d="m106 99.9h-10c-1.5 0-2.8.2-3.7.5-.5.1-.9.3-1.2.5s-.7.4-1 .8c-.9.8-1.5 1.8-1.9 3l-.3.9v1.1.8h18.1v5.2h-18.1v13h-6.8v-15.6c0-1.4.1-2.6.2-3.6 0-1 .2-1.9.4-2.7.5-2.5 1.7-4.6 3.5-6.3 1.1-1 2.5-1.8 4.1-2.2 1.6-.5 3.6-.8 6-.8h10.7zm-55.2-5.4h28v5.4h-10.7v25.8h-6.6v-25.8h-10.7zm-17.7 18.9h-7.1v12.3h-6.7v-31.2h18c3 0 5.3.8 6.8 2.2 1.8 1.6 2.6 4 2.6 7.3 0 1.2-.1 2.3-.3 3.3-.2.9-.6 1.7-1.1 2.5-.9 1.4-2.3 2.5-4.4 3.2h-.1l6.8 12.7h-7.9zm-7.1-13.5v8.6h7.8c1.6 0 2.7-.3 3.5-.8 1-.7 1.5-1.9 1.5-3.5 0-1.5-.5-2.6-1.4-3.3s-2.1-1-3.6-1z"/><g stroke="#000" transform="translate(130.96752 -9.864116)"><path d="m-81.3 63.1 5 1.1-2-3.1z" stroke-width=".7"/><path d="m-62.2 51s1.6-.3 1.6-.3 1.4 1.1 1.4 1.1c0-.6-.3-.9-1-1.2 0 0 .1-.3.1-.3.7-.1.9-.1 1.4-.7 0 0-1.9.3-1.9.3s-1.2-.9-1.2-.9c0 .6.2.7.8 1.1 0 0-1.2.9-1.2.9zm.7-2.6s.8.5.8.5c1.5-.4 1.9.4 2.3-1 0 0-.3-.1-.3-.1-.5.7-.9.7-1.7.5 0 0 .2-.8.2-.8s-.4-.1-.4-.1-.2.8-.2.8-.6-.1-.6-.1-.1.3-.1.3zm3.1-2.6c0 .8-.1.9-.9 1.4 0 0 .4-1.6.4-1.6-1.8 0-1.6 1.4-.8 1.9 1.2.4 2.2-.9 1.3-1.7zm-1.6-1s2.2.4 2.2.4.1-.3.1-.3c-1-.2-1.6-.3-1.7-1.3 0 0-.3-.1-.3-.1s.1.9.1.9-.4.4-.4.4zm.3-1.6s2.3.5 2.3.5v-.3c-.3-.1-2.2-.5-1.3-1.2.2-.2 1.2 0 1.6.1v-.4c-.3 0-2-.4-1.4-.9.3-.3 1.3-.1 1.6 0 0 0 .1-.5.1-.5-.5-.1-1.3-.3-1.9-.2-.4.2-.7 1.6-.6 2.1-.1.2.1.2.1.4 0 0-.5.4-.5.4zm.3 2.7s-.2 1.2-.2 1.2c-.4-.5-.5-.9.2-1.2z" fill="none" stroke-width=".2"/><path d="m-90.4 65.7c15.3-16.3 46.8-48.4 58.4-36.6 10.3 12.3-29.6 37.7-46.4 48.5z" fill="url(#b)" stroke-width="3.6"/><path d="m-80.3 76.3s-3.6 7-1.8 9c1.8 1.6-15.7 6.9-18.6 6.6 0 0-2.5 5.4-6 1.8-3.6-3.7 2-6.3 2-6.3 0-4.2 4.7-20.2 6.4-18.4 1.8 1.8 9.1-1.8 9.1-1.8s8.9 9.1 8.9 9.1z" fill="url(#c)" fill-opacity=".8" stroke-width="2.7"/><path d="m-105.5 92.5s14.5-14.3 14.5-14.3" fill="none" stroke-linecap="round" stroke-linejoin="round" stroke-width=".7"/></g><path d="m24.6 7.3h75.7c11.7 0 17.4 5.7 17.4 17.4 0 0-79.3.9-110.4 91.3v-91.3c0-10.3 7-17.4 17.3-17.4z" fill="url(#a)"/></svg>

<svg xmlns:svg="http://www.w3.org/2000/svg" xmlns="http://www.w3.org/2000/svg" xmlns:xlink="http://www.w3.org/1999/xlink" height="140.9" width="125.3" id="svg1" version="1">
<style>
.s0{
  stop-color:#ffffff;
  stop-opacity:1;
}
.s1{
  stop-color:#46a046;
  stop-opacity:1;
}
.s2{
  stop-color:#df421e;
  stop-opacity:1;
}
.s3{
  stop-color:#ada7c8;
  stop-opacity:1;
}
.s4{
  stop-color:#eed680;
  stop-opacity:1;
}
.s5{
  stop-color:#ffff00;
  stop-opacity:1;
}
.s6{
  stop-color:#ffea00;
  stop-opacity:1;
}
.s7{
  stop-color:#ffd600;
  stop-opacity:1;
}
.s8{
  stop-color:#dfb546;
  stop-opacity:1;
}
.s9{
  stop-color:#d1940c;
  stop-opacity:1;
}

</style>  <metadata id="metadata15"/>
  <defs id="defs3">
    <linearGradient id="linearGradient3587">
      <stop offset="0" id="stop3589" style="stop-color:#efe0cd;stop-opacity:0.6"/>
      <stop offset="1" id="stop3591" style="stop-color:#cececd;stop-opacity:0.2"/>
    </linearGradient>
    <linearGradient id="linearGradient2832">
      <stop id="stop2834" offset="0" class="s0"/>
      <stop id="stop2836" offset="1" style="stop-color:#ffffff;stop-opacity:0"/>
    </linearGradient>
    <linearGradient id="linearGradient839">
      <stop id="stop840" offset="0" class="s1"/>
      <stop id="stop841" offset="0.4" class="s2"/>
      <stop id="stop842" offset="0.7" class="s3"/>
      <stop id="stop843" offset="1" class="s4"/>
    </linearGradient>
    <linearGradient y2="0.5" x2="1" y1="0.5" x1="0" id="linearGradient836" xlink:href="#linearGradient839"/>
    <linearGradient gradientUnits="userSpaceOnUse" y2="73.4" x2="73" y1="16.4" x1="24" gradientTransform="matrix(0.939922,0,0,0.896911,-12.081733,-3.3524237)" id="linearGradient2830" xlink:href="#linearGradient2832"/>
    <linearGradient xlink:href="#linearGradient869" id="linearGradient674" x1="95.1" y1="73.5" x2="76.6" y2="55.1" spreadMethod="reflect" gradientTransform="scale(1.0801,0.92584)" gradientUnits="userSpaceOnUse"/>
    <linearGradient xlink:href="#linearGradient839" id="linearGradient1373" x1="0" y1="0.5" x2="1" y2="0.5"/>
    <linearGradient id="linearGradient1363">
      <stop offset="0" id="stop1365" class="s1"/>
      <stop offset="0.4" id="stop1367" class="s2"/>
      <stop offset="0.7" id="stop1369" class="s3"/>
      <stop offset="1" id="stop1371" class="s4"/>
    </linearGradient>
    <linearGradient xlink:href="#linearGradient907" id="linearGradient904" x1="52.7" y1="81.2" x2="47.1" y2="75.1" spreadMethod="reflect" gradientTransform="scale(0.999352,1.000649)" gradientUnits="userSpaceOnUse"/>
    <linearGradient id="linearGradient866">
      <stop offset="0" id="stop867" class="s5"/>
      <stop offset="0.4" id="stop901" class="s6"/>
      <stop offset="1" id="stop868" class="s7"/>
    </linearGradient>
    <linearGradient id="linearGradient869">
      <stop offset="0" id="stop870" style="stop-color:#990000;stop-opacity:1"/>
      <stop offset="1" id="stop871" class="s0"/>
    </linearGradient>
    <linearGradient id="linearGradient907">
      <stop offset="0" id="stop908" class="s4"/>
      <stop offset="0.3" id="stop911" class="s8"/>
      <stop offset="1" id="stop910" class="s9"/>
    </linearGradient>
    <linearGradient xlink:href="#linearGradient869" id="linearGradient2167" gradientUnits="userSpaceOnUse" gradientTransform="scale(1.0801,0.92584)" spreadMethod="reflect" x1="-54.6" y1="63.6" x2="-66.5" y2="49.7"/>
    <linearGradient xlink:href="#linearGradient907" id="linearGradient2169" gradientUnits="userSpaceOnUse" gradientTransform="matrix(0.999352,0,0,1.000649,-151.1197,-0.37325)" spreadMethod="reflect" x1="52.7" y1="81.2" x2="47.1" y2="75.1"/>
    <linearGradient spreadMethod="reflect" y2="0.5" x2="0.4" y1="0.8" x1="0.7" id="linearGradient1413" xlink:href="#linearGradient869"/>
    <linearGradient y2="0.5" x2="1" y1="0.5" x1="0" id="linearGradient1411" xlink:href="#linearGradient839"/>
    <linearGradient id="linearGradient1401">
      <stop id="stop1403" offset="0" class="s1"/>
      <stop id="stop1405" offset="0.4" class="s2"/>
      <stop id="stop1407" offset="0.7" class="s3"/>
      <stop id="stop1409" offset="1" class="s4"/>
    </linearGradient>
    <linearGradient spreadMethod="reflect" y2="0.3" x2="0.2" y1="0.5" x1="0.4" id="linearGradient1399" xlink:href="#linearGradient907"/>
    <linearGradient id="linearGradient1391">
      <stop id="stop1393" offset="0" class="s5"/>
      <stop id="stop1395" offset="0.4" class="s6"/>
      <stop id="stop1397" offset="1" class="s7"/>
    </linearGradient>
    <linearGradient id="linearGradient1384">
      <stop id="stop1386" offset="0" style="stop-color:#7590ae;stop-opacity:1"/>
      <stop id="stop912" offset="0.9" style="stop-color:#89a4c0;stop-opacity:1"/>
      <stop id="stop1389" offset="1" style="stop-color:#9db8d2;stop-opacity:1"/>
    </linearGradient>
    <linearGradient id="linearGradient1376">
      <stop id="stop1378" offset="0" class="s4"/>
      <stop id="stop1380" offset="0.3" class="s8"/>
      <stop id="stop1382" offset="1" class="s9"/>
    </linearGradient>
  </defs>
  <rect rx="22.9" ry="22.9" y="3.8" x="3.8" height="133.4" width="117.8" id="rect834" style="fill:none;stroke-linejoin:round;stroke-opacity:0.5;stroke-width:7.5;stroke:#000"/>
  <rect rx="22.9" ry="22.9" y="3.7" x="3.6" height="133.4" width="117.8" id="rect828" style="fill:#bab5ab;stroke-width:3.8;stroke:#000"/>
  <path id="path1444" d="M105.3 99.2L95.3 99.2C93.8 99.2 92.6 99.4 91.6 99.7 91.2 99.9 90.8 100 90.4 100.2 90.1 100.4 89.7 100.7 89.4 101 88.5 101.8 87.9 102.8 87.5 104L87.3 104.9 87.2 106 87.2 106.9 105.3 106.9 105.3 112 87.2 112 87.2 125 80.5 125 80.5 109.4C80.5 108.1 80.5 106.9 80.6 105.9 80.7 104.8 80.8 103.9 81 103.1 81.5 100.6 82.7 98.5 84.5 96.9 85.6 95.8 87 95.1 88.6 94.6 90.2 94.1 92.2 93.9 94.7 93.9L105.3 93.9 105.3 99.2zM50.1 93.9L78.1 93.9 78.1 99.2 67.4 99.2 67.4 125 60.8 125 60.8 99.2 50.1 99.2 50.1 93.9zM32.5 112.7L25.3 112.7 25.3 125 18.6 125 18.6 93.9 36.6 93.9C39.6 93.9 41.9 94.6 43.5 96.1 45.2 97.7 46.1 100.1 46.1 103.3 46.1 104.5 46 105.6 45.7 106.6 45.5 107.5 45.2 108.3 44.7 109.1 43.8 110.5 42.3 111.6 40.3 112.3L40.1 112.3 46.9 125 39 125 32.5 112.7zM25.3 99.2L25.3 107.9 33.1 107.9C34.7 107.9 35.8 107.6 36.6 107 37.6 106.3 38.1 105.2 38.1 103.5 38.1 102 37.6 100.9 36.7 100.3 35.8 99.6 34.6 99.2 33.1 99.2L25.3 99.2z" style="fill:#fff;font-family:Trek;font-size:40;stroke-width:1"/>
  <path id="path2838" d="M100.3 132.6L24.6 132.6C13 132.6 7.3 126.9 7.3 115.2 7.3 115.2 34.9 48.7 117.7 38.6L117.7 115.2C117.7 126.9 112 132.6 100.3 132.6z" style="fill-opacity:0.3;fill:#fff"/>
  <path id="path856" d="M106 99.9L96 99.9C94.5 99.9 93.2 100.1 92.3 100.4 91.8 100.5 91.4 100.7 91.1 100.9 90.8 101.1 90.4 101.3 90.1 101.7 89.2 102.5 88.6 103.5 88.2 104.7L87.9 105.6 87.9 106.7 87.9 107.5 106 107.5 106 112.7 87.9 112.7 87.9 125.7 81.1 125.7 81.1 110.1C81.1 108.7 81.2 107.5 81.3 106.5 81.3 105.5 81.5 104.6 81.7 103.8 82.2 101.3 83.4 99.2 85.2 97.5 86.3 96.5 87.7 95.7 89.3 95.3 90.9 94.8 92.9 94.5 95.3 94.5L106 94.5 106 99.9zM50.8 94.5L78.8 94.5 78.8 99.9 68.1 99.9 68.1 125.7 61.5 125.7 61.5 99.9 50.8 99.9 50.8 94.5zM33.1 113.4L26 113.4 26 125.7 19.3 125.7 19.3 94.5 37.3 94.5C40.3 94.5 42.6 95.3 44.1 96.7 45.9 98.3 46.7 100.7 46.7 104 46.7 105.2 46.6 106.3 46.4 107.3 46.2 108.2 45.8 109 45.3 109.8 44.4 111.2 43 112.3 40.9 113L40.8 113 47.6 125.7 39.7 125.7 33.1 113.4zM26 99.9L26 108.5 33.8 108.5C35.4 108.5 36.5 108.2 37.3 107.7 38.3 107 38.8 105.8 38.8 104.2 38.8 102.7 38.3 101.6 37.4 100.9 36.5 100.2 35.3 99.9 33.8 99.9L26 99.9z" style="font-family:Trek;font-size:40;stroke-width:1"/>
  <g id="g2160" transform="translate(130.96752,-9.8641157)">
    <path d="M-81.3 63.1L-76.3 64.2 -78.3 61.1 -81.3 63.1z" id="path873" style="stroke-width:0.7;stroke:#000"/>
    <path id="path900" d="M-62.2 51C-62.2 51-60.6 50.7-60.6 50.7 -60.6 50.7-59.2 51.8-59.2 51.8 -59.2 51.2-59.5 50.9-60.2 50.6 -60.2 50.6-60.1 50.3-60.1 50.3 -59.4 50.2-59.2 50.2-58.7 49.6 -58.7 49.6-60.6 49.9-60.6 49.9 -60.6 49.9-61.8 49-61.8 49 -61.8 49.6-61.6 49.7-61 50.1 -61 50.1-62.2 51-62.2 51zM-61.5 48.4C-61.5 48.4-60.7 48.9-60.7 48.9 -59.2 48.5-58.8 49.3-58.4 47.9 -58.4 47.9-58.7 47.8-58.7 47.8 -59.2 48.5-59.6 48.5-60.4 48.3 -60.4 48.3-60.2 47.5-60.2 47.5 -60.2 47.5-60.6 47.4-60.6 47.4 -60.6 47.4-60.8 48.2-60.8 48.2 -60.8 48.2-61.4 48.1-61.4 48.1 -61.4 48.1-61.5 48.4-61.5 48.4zM-58.4 45.8C-58.4 46.6-58.5 46.7-59.3 47.2 -59.3 47.2-58.9 45.6-58.9 45.6 -60.7 45.6-60.5 47-59.7 47.5 -58.5 47.9-57.5 46.6-58.4 45.8zM-60 44.8C-60 44.8-57.8 45.2-57.8 45.2 -57.8 45.2-57.7 44.9-57.7 44.9 -58.7 44.7-59.3 44.6-59.4 43.6 -59.4 43.6-59.7 43.5-59.7 43.5 -59.7 43.5-59.6 44.4-59.6 44.4 -59.6 44.4-60 44.8-60 44.8zM-59.7 43.2C-59.7 43.2-57.4 43.7-57.4 43.7 -57.4 43.7-57.4 43.4-57.4 43.4 -57.7 43.3-59.6 42.9-58.7 42.2 -58.5 42-57.5 42.2-57.1 42.3 -57.1 42.3-57.1 41.9-57.1 41.9 -57.4 41.9-59.1 41.5-58.5 41 -58.2 40.7-57.2 40.9-56.9 41 -56.9 41-56.8 40.5-56.8 40.5 -57.3 40.4-58.1 40.2-58.7 40.3 -59.1 40.5-59.4 41.9-59.3 42.4 -59.4 42.6-59.2 42.6-59.2 42.8 -59.2 42.8-59.7 43.2-59.7 43.2zM-59.4 45.9C-59.4 45.9-59.6 47.1-59.6 47.1 -60 46.6-60.1 46.2-59.4 45.9z" style="fill:none;stroke-width:0.2;stroke:#000"/>
    <path d="M-90.4 65.7C-75.1 49.4-43.6 17.3-32 29.1 -21.7 41.4-61.6 66.8-78.4 77.6L-90.4 65.7z" id="path879" style="fill:url(#linearGradient2167);stroke-width:3.6;stroke:#000"/>
    <path d="M-80.3 76.3C-80.3 76.3-83.9 83.3-82.1 85.3 -80.3 86.9-97.8 92.2-100.7 91.9 -100.7 91.9-103.2 97.3-106.7 93.7 -110.3 90-104.7 87.4-104.7 87.4 -104.7 83.2-100 67.2-98.3 69 -96.5 70.8-89.2 67.2-89.2 67.2 -89.2 67.2-80.3 76.3-80.3 76.3z" id="path868" style="fill-opacity:0.8;fill:url(#linearGradient2169);stroke-width:2.7;stroke:#000"/>
    <path d="M-105.5 92.5C-105.5 92.5-91 78.2-91 78.2" id="path876" style="fill:none;stroke-linecap:round;stroke-linejoin:round;stroke-width:0.7;stroke:#000"/>
  </g>
  <path id="rect2063" d="M24.6 7.3L100.3 7.3C112 7.3 117.7 13 117.7 24.7 117.7 24.7 38.4 25.6 7.3 116L7.3 24.7C7.3 14.4 14.3 7.3 24.6 7.3z" fill="url(#linearGradient2830)"/>
</svg>
